dist/svgs/unicons/line/flask.svg

<svg xmlns="http://www.w3.org/2000/svg" data-name="Layer 1" viewBox="0 0 24 24"><path d="M20.11 17.49L15 8.73V4h1a1 1 0 000-2H8a1 1 0 000 2h1v4.73l-5.11 8.76A3 3 0 006.48 22h11a3 3 0 002.59-4.51zm-9.25-8A1 1 0 0011 9V4h2v5a1 1 0 00.14.5L14 11h-4zm7.52 10a1 1 0 01-.86.5h-11a1 1 0 01-.86-.5 1 1 0 010-1L8.83 13h6.35l3.2 5.5a1 1 0 010 1zM10 15a1 1 0 101 1 1 1 0 00-1-1zm4 1a1 1 0 101 1 1 1 0 00-1-1z"/></svg>

<svg xmlns="http://www.w3.org/2000/svg" data-name="Layer 1" viewBox="0 0 24 24"><path d="M20.11,17.49,15,8.73V4h1a1,1,0,0,0,0-2H8A1,1,0,0,0,8,4H9V8.73L3.89,17.49A3,3,0,0,0,6.48,22h11a3,3,0,0,0,2.59-4.51Zm-9.25-8A1,1,0,0,0,11,9V4h2V9a1,1,0,0,0,.14.5L14,11H10Zm7.52,10a1,1,0,0,1-.86.5h-11a1,1,0,0,1-.86-.5,1,1,0,0,1,0-1L8.83,13h6.35l3.2,5.5A1,1,0,0,1,18.38,19.5ZM10,15a1,1,0,1,0,1,1A1,1,0,0,0,10,15Zm4,1a1,1,0,1,0,1,1A1,1,0,0,0,14,16Z"/></svg>
